X:1
T:Title
%%score { ( 1 3 ) | ( 2 4 ) }
L:1/8
Q:1/4=112
M:3/4
K:Bb
V:1 treble nm="Grand Piano"
V:3 treble 
V:2 bass 
V:4 bass 
V:1
 [B,D]2 [CE]2 [_D=E]2 | [DF]4 [DB]2 | c2 B2 [EG]2 | [EG]4 [DF]2 | [DB]4 [DB]2 | [Fd]4 d2 | %6
w: S.~M.~Bixby * *||||||
 B2 c2 [=Ed]2 | c6 | D2 E2 [_D=E]2 | [DF]4 [DB]2 | [Ec]2 [Fd]2 [Ge]2 | [Fd]4 [Fc]2 | B2 z2 z2 | %13
w: |||||||
 F4 B2 | d4 z2 | [DB]6 |] %16
w: |||
V:2
 [B,,F,]4 [B,,G,]2 | [B,,F,]4 [B,,F,]2 | [B,,G,]4 [B,,B,]2 | [B,,B,]4 [B,,B,]2 | %4
 [B,,F,]4 [B,,F,]2 | [B,,B,]4[K:treble] [B,F]2 | [G,B,=E]4[K:bass] [C,B,]2 | F4 z2 | B,2 z2 z2 | %9
 [B,,F,]4 [B,,F,]2 | G,4 z2 | [F,A,]4 [E,A,]2 | [D,B,]4 [E,B,E]2 | [F,B,D]4 [F,B,D]2 | %14
 [F,F]4 [F,A,E]2 | [B,,B,]6 |] %16
V:3
 x6 | x6 | E4 z2 | x6 | x6 | x6 | x6 | z2 z2 E2 | x6 | x6 | x6 | x6 | F2- [FA]2 G2 | x6 | %14
 z2 G,2 c2 | x6 |] %16
V:4
 x6 | x6 | x6 | x6 | x6 | x4[K:treble] x2 | x4[K:bass] x2 | [F,A,]6 | B,,2- [B,,A,C]2 [B,,G,]2 | %9
 x6 | E,2 D,2 [C,G,]2 | x6 | x6 | x6 | B,2 z2 z2 | x6 |] %16

